X: 16647
T: Hanley's Tweed
R: reel
M: 4/4
K: Ddorian
ABc|d2ad bdad|egde c3e|dA (3ABA dcde|agab c'2bc'|
ad'd'c' ag (3efg|c'bc'd' c'agc'|aged ec (3cdc|eage d:|
efg|ad'd'b c'2 (3abc'|ac'gc' ag (3efg|ad'd'b c'2 (3abc'|ac' (3gab c'geg|
ad' (3d'e'd' e'c' (3c'd'c'|d'c'd'e' c'2ag|aged ec (3cdc|eage d:|

